X:122
T:Duke of Cumberland. JJo4.122
B:J.Johnson Choice Collection Vol 4, 1748
Z:vmp.Anne Wride 2014 www.village-music-project.org.uk
M:6/8
Q:3/8=110
L:1/8
K:C
(3G/A/B/)|c2c cdc | BAB c2G | c2c cdc | Bcd fdB |
c2c cdc BAB c2e | dcB AG^F | GDB,G,2 ?
|: d |g2g gag | gec cde | f2f fgf | fdB Bdf |
afc gec | fdc Bdf | edc GAB | cGE C3:|
W:The 1st Man sets to the 2d. Wo. and turns his own Partner
W:The 1st Wo. does the same
W:Gallop down and up again, foot it and cast off
W:Right Hand and Left

